X:1
T:Title
%%score { ( 1 3 ) | 2 }
L:1/8
M:4/4
K:G
V:1 treble nm="Grand Piano"
V:3 treble 
V:2 treble 
V:1
 z4 z2[Q:1/4=96] G>A | B>B B>B c>B A>G | [EA]>E E>E E2 [^CA]>[CG] | F>F F>F E2 F2 | E4 D2 G>A | %5
 B>B B>B c>B A>G | [EA]>E E>E [Ec]2 [Ge]>[Ge] | [Gd]2 [DGB]2 [CFA]>[B,G] [DFB]>[CFA] | %8
[M:3/4] [B,G]6 |[M:1/4] B>c |[M:4/4] d2 d2 e>d [DG]>[DFA] | [GB]2- [DG-B-]>[DG-B-] [DGB]2 B>c | %12
 d2 d2 e>d d>B | A2- [^CEA-]>[CEA-] [DFA]2 [DFB]>[CFA] | [B,G]2 [B,G]2 [EA]>[EG] [EG]>[CE] | %15
 [B,D]6 d>e | d2 B2 [CFA]>[B,G] [DFB]>[CFA] |[M:3/4] [B,G]6 |] %18
V:2
 z4 z2 [G,B,D]>[G,CD] | [G,DG]>[G,DG] [G,DG]>[G,DG] [G,EG]>[G,DG][K:bass] [G,CD]>[G,B,D] | %2
 [C,C]>[C,G,C] [C,G,C]>[C,G,C] [C,G,C]2 [A,,A,]>[A,,A,] | %3
 [D,A,D]>[D,A,D] [D,A,D]>[D,A,D] [D,A,C]2 [D,A,C]2 | [G,,G,]6[K:treble] [G,B,D]>[G,CD] | %5
 [G,DG]>[G,DG] [G,DG]>[G,DG] [G,EG]>[G,DG][K:bass] [G,CD]>[G,B,D] | %6
 [C,C]>[C,G,C] [C,G,C]>[C,G,C] [C,G,]2 [C,C]>[C,C] | [D,B,]2 D,2 D,>D, D,>D, |[M:3/4] G,,6 | %9
[M:1/4][K:treble] [G,G]>[G,A,G] |[M:4/4] [G,B,G]2 [G,B,G]2 [G,CG]>[G,B,G][K:bass] B,,>D, | %11
 G,2 D,>D, G,2[K:treble] [G,G]>[G,A,G] | [G,B,G]2 [G,B,G]2 [G,CG]>[G,B,G] [G,B,G]>[G,DG] | %13
 D,2 A,,>A,, D,2 D,>D, | E,2 E,2 [C,C]>[C,C] [C,C]>[C,G,] | [G,,G,]6[K:treble] [G,B,G]>[G,CG] | %16
 [G,B,G]2 [G,DG]2[K:bass] D,>D, D,>D, |[M:3/4] G,,6 |] %18
V:3
 x8 | x8 | x8 | x8 | B,6 z2 | x8 | x8 | x8 |[M:3/4] x6 |[M:1/4] x2 |[M:4/4] x8 | D2 z2 z4 | x8 | %13
 [DF]2 z2 z4 | x8 | x8 | x8 |[M:3/4] x6 |] %18

